ubuntu-mono-dark/stock/48/stock_person-panel.svg

<?xml version="1.0" encoding="UTF-8" standalone="no"?>
<!-- Created with Inkscape (http://www.inkscape.org/) -->

<svg
   xmlns:dc="http://purl.org/dc/elements/1.1/"
   xmlns:cc="http://creativecommons.org/ns#"
   xmlns:rdf="http://www.w3.org/1999/02/22-rdf-syntax-ns#"
   xmlns:svg="http://www.w3.org/2000/svg"
   xmlns="http://www.w3.org/2000/svg"
   xmlns:sodipodi="http://sodipodi.sourceforge.net/DTD/sodipodi-0.dtd"
   xmlns:inkscape="http://www.inkscape.org/namespaces/inkscape"
   version="1.0"
   width="48"
   height="48"
   id="svg3170"
   sodipodi:version="0.32"
   inkscape:version="0.48.0 r9654"
   sodipodi:docname="stock_person-panel.svg"
   inkscape:output_extension="org.inkscape.output.svg.inkscape">
  <metadata
     id="metadata8">
    <rdf:RDF>
      <cc:Work
         rdf:about="">
        <dc:format>image/svg+xml</dc:format>
        <dc:type
           rdf:resource="http://purl.org/dc/dcmitype/StillImage" />
      </cc:Work>
    </rdf:RDF>
  </metadata>
  <sodipodi:namedview
     inkscape:window-height="753"
     inkscape:window-width="1280"
     inkscape:pageshadow="2"
     inkscape:pageopacity="0.0"
     guidetolerance="10.0"
     gridtolerance="10.0"
     objecttolerance="10.0"
     borderopacity="1.0"
     bordercolor="#666666"
     pagecolor="#ffffff"
     id="base"
     showgrid="false"
     showguides="true"
     inkscape:guide-bbox="true"
     inkscape:zoom="10.375"
     inkscape:cx="9.3493976"
     inkscape:cy="25.012048"
     inkscape:window-x="0"
     inkscape:window-y="24"
     inkscape:current-layer="svg3170"
     inkscape:window-maximized="1" />
  <defs
     id="defs3172" />
  <path
     inkscape:connector-curvature="0"
     style="fill:#000000;fill-opacity:1;fill-rule:nonzero;stroke:none;stroke-width:1.00178742000000010;marker:none;visibility:visible;display:inline;overflow:visible;enable-background:accumulate;opacity:0.3"
     id="rect2382-4"
     d="M 2.9166667,2 C 1.8548333,2 1,2.8601205 1,3.9285214 L 1,45 4.0846354,43.644009 C 11.695843,40.263461 17.052083,36.35155 17.052083,34.212334 c 0,-1.496988 -1.513256,-4.253447 -3.204427,-5.845831 -1.085791,-1.022367 -1.535748,-2.0527 -1.796875,-4.278906 -0.199697,-1.702411 -0.239621,-3.377963 0.179688,-3.465313 0.714916,-0.14893 0.539244,-2.48412 0.539062,-4.851436 -3.06e-4,-3.773092 0.171379,-4.533131 1.407552,-6.3279608 0.775474,-1.1259315 1.645123,-2.0490541 1.916667,-2.049054 0.271534,0 0.329465,-0.2497819 0.14974,-0.5423966 -0.18701,-0.3044538 0.03667,-0.3933497 0.509114,-0.210932 0.495516,0.1913208 0.960078,-0.057542 1.167969,-0.602663 0.245832,-0.6445725 0.46967,-0.7254557 0.748698,-0.2711983 0.29164,0.4747991 0.752223,0.4175143 1.796875,-0.2711983 0.80972,-0.5338311 1.999338,-0.761387 3.354166,-0.7533287 4.064486,0.024175 9.658521,2.1991202 11.380209,5.0021024 0.865241,1.4086453 1.108071,2.6912323 1.108073,6.0567623 0,2.347905 -0.05082,4.634099 0.509114,4.821303 0.406362,0.135859 0.379365,1.762901 0.179688,3.465313 -0.261136,2.226207 -0.681147,3.25654 -1.766927,4.278906 -1.689475,1.590786 -3.204426,4.352461 -3.204427,5.845831 0,2.08603 5.660299,6.2884 12.158854,9.00981 L 47,44.397337 47,3.9285214 C 47,2.8601205 46.145167,2 45.083333,2 L 2.9166667,2 z" />
  <path
     inkscape:connector-curvature="0"
     style="fill:#dfdbd2;fill-opacity:1;fill-rule:nonzero;stroke:none;stroke-width:1.00178742000000010;marker:none;visibility:visible;display:inline;overflow:visible;enable-background:accumulate"
     id="rect2382"
     d="M 2.9166667,1 C 1.8548333,1 1,1.8601205 1,2.9285214 L 1,44 4.0846354,42.644009 C 11.695843,39.263461 17.052083,35.35155 17.052083,33.212334 c 0,-1.496988 -1.513256,-4.253447 -3.204427,-5.845831 -1.085791,-1.022367 -1.535748,-2.0527 -1.796875,-4.278906 -0.199697,-1.702411 -0.239621,-3.377963 0.179688,-3.465313 0.714916,-0.14893 0.539244,-2.48412 0.539062,-4.851436 -3.06e-4,-3.773092 0.171379,-4.533131 1.407552,-6.3279608 0.775474,-1.1259315 1.645123,-2.0490541 1.916667,-2.049054 0.271534,0 0.329465,-0.2497819 0.14974,-0.5423966 -0.18701,-0.3044538 0.03667,-0.3933497 0.509114,-0.210932 0.495516,0.1913208 0.960078,-0.057542 1.167969,-0.602663 0.245832,-0.6445725 0.46967,-0.7254557 0.748698,-0.2711983 0.29164,0.4747991 0.752223,0.4175143 1.796875,-0.2711983 0.80972,-0.5338311 1.999338,-0.761387 3.354166,-0.7533287 4.064486,0.024175 9.658521,2.1991202 11.380209,5.0021024 0.865241,1.4086453 1.108071,2.6912323 1.108073,6.0567623 0,2.347905 -0.05082,4.634099 0.509114,4.821303 0.406362,0.135859 0.379365,1.762901 0.179688,3.465313 -0.261136,2.226207 -0.681147,3.25654 -1.766927,4.278906 -1.689475,1.590786 -3.204426,4.352461 -3.204427,5.845831 0,2.08603 5.660299,6.2884 12.158854,9.00981 L 47,43.397337 47,2.9285214 C 47,1.8601205 46.145167,1 45.083333,1 L 2.9166667,1 z" />
</svg>

<?xml version="1.0" encoding="UTF-8" standalone="no"?>
<!-- Created with Inkscape (http://www.inkscape.org/) -->
<svg
   xmlns:dc="http://purl.org/dc/elements/1.1/"
   xmlns:cc="http://creativecommons.org/ns#"
   xmlns:rdf="http://www.w3.org/1999/02/22-rdf-syntax-ns#"
   xmlns:svg="http://www.w3.org/2000/svg"
   xmlns="http://www.w3.org/2000/svg"
   xmlns:sodipodi="http://sodipodi.sourceforge.net/DTD/sodipodi-0.dtd"
   xmlns:inkscape="http://www.inkscape.org/namespaces/inkscape"
   version="1.0"
   width="48"
   height="48"
   id="svg3170"
   sodipodi:version="0.32"
   inkscape:version="0.46"
   sodipodi:docname="stock_person-panel-48.svg"
   inkscape:output_extension="org.inkscape.output.svg.inkscape">
  <metadata
     id="metadata8">
    <rdf:RDF>
      <cc:Work
         rdf:about="">
        <dc:format>image/svg+xml</dc:format>
        <dc:type
           rdf:resource="http://purl.org/dc/dcmitype/StillImage" />
      </cc:Work>
    </rdf:RDF>
  </metadata>
  <sodipodi:namedview
     inkscape:window-height="706"
     inkscape:window-width="640"
     inkscape:pageshadow="2"
     inkscape:pageopacity="0.0"
     guidetolerance="10.0"
     gridtolerance="10.0"
     objecttolerance="10.0"
     borderopacity="1.0"
     bordercolor="#666666"
     pagecolor="#ffffff"
     id="base"
     showgrid="false"
     showguides="true"
     inkscape:guide-bbox="true"
     inkscape:zoom="10.375"
     inkscape:cx="24"
     inkscape:cy="24"
     inkscape:window-x="0"
     inkscape:window-y="24"
     inkscape:current-layer="svg3170" />
  <defs
     id="defs3172" />
  <g
     id="layer1">
    <path
       d="M 2.90625,0.5 C 1.5701585,0.5 0.5,1.6042679 0.5,2.9375 L 0.5,44 C 0.49956972,44.166673 0.5817843,44.322722 0.71949495,44.416616 C 0.8572056,44.510509 1.0325027,44.530037 1.1875,44.46875 L 4.28125,43.125 C 4.2916641,43.125324 4.3020859,43.125324 4.3125,43.125 C 8.1439489,41.423247 11.386412,39.574685 13.71875,37.875 C 14.884919,37.025158 15.840195,36.203245 16.5,35.4375 C 17.159805,34.671755 17.5625,33.96335 17.5625,33.21875 C 17.562501,32.299293 17.148193,31.211362 16.53125,30.09375 C 15.914307,28.976138 15.083398,27.843566 14.1875,27 C 13.175989,26.047574 12.81821,25.211271 12.5625,23.03125 C 12.464162,22.192924 12.3954,21.351298 12.40625,20.75 C 12.411675,20.449351 12.436157,20.221948 12.46875,20.09375 C 12.485047,20.029651 12.509442,19.985692 12.5,20 C 12.623101,19.93423 12.767562,19.879092 12.84375,19.78125 C 12.962073,19.629298 13.039022,19.456446 13.09375,19.28125 C 13.203207,18.930857 13.254488,18.530279 13.28125,18.0625 C 13.334773,17.126942 13.28134,15.954147 13.28125,14.78125 C 13.281098,12.902272 13.319164,11.785346 13.5,10.96875 C 13.680836,10.152154 13.988734,9.5971874 14.59375,8.71875 C 14.967994,8.1753755 15.364883,7.6863258 15.6875,7.34375 C 15.848809,7.1724621 15.994561,7.04642 16.09375,6.96875 C 16.192939,6.89108 16.305149,6.9062501 16.09375,6.90625 C 16.396039,6.90625 16.733939,6.6713094 16.8125,6.375 C 16.840566,6.2691422 16.790352,6.1903124 16.78125,6.09375 C 17.081065,6.1567805 17.39203,6.1993971 17.65625,6.0625 C 17.986458,5.8914135 18.236507,5.5818991 18.375,5.21875 C 18.465081,5.3207258 18.556903,5.4363598 18.6875,5.5 C 18.893705,5.6004845 19.126525,5.5955848 19.34375,5.5625 C 19.778199,5.4963303 20.204657,5.2657809 20.75,4.90625 C 21.426499,4.4602487 22.51486,4.2422818 23.8125,4.25 C 25.756552,4.261563 28.125198,4.7842433 30.1875,5.65625 C 32.249802,6.5282567 33.985786,7.7558268 34.75,9 C 35.56719,10.330414 35.812498,11.472832 35.8125,14.8125 C 35.8125,15.982176 35.786718,17.14365 35.84375,18.0625 C 35.872266,18.521925 35.91115,18.914005 36,19.25 C 36.044425,19.417998 36.096584,19.570386 36.1875,19.71875 C 36.278416,19.867114 36.439658,20.021337 36.65625,20.09375 C 36.46999,20.031478 36.526931,19.989769 36.5625,20.125 C 36.598069,20.260231 36.615193,20.484124 36.625,20.78125 C 36.644615,21.375502 36.597893,22.196633 36.5,23.03125 C 36.244283,25.211272 35.886501,26.047575 34.875,27 C 33.978634,27.844005 33.1717,28.975164 32.5625,30.09375 C 31.9533,31.212336 31.531251,32.304004 31.53125,33.21875 C 31.53125,33.967456 31.956492,34.666408 32.625,35.4375 C 33.293508,36.208592 34.241239,37.035365 35.375,37.875 C 37.642522,39.55427 40.713834,41.311347 44,42.6875 L 46.8125,43.875 C 46.967497,43.936287 47.142794,43.916759 47.280505,43.822866 C 47.418216,43.728972 47.50043,43.572923 47.5,43.40625 L 47.5,2.9375 C 47.5,1.6042681 46.429842,0.5 45.09375,0.5 L 2.90625,0.5 z"
       transform="matrix(0.9999619,0,0,0.9998692,9.144573e-4,9.607878e-4)"
       id="path3166"
       style="opacity:0.6;fill:none;fill-opacity:1;fill-rule:evenodd;stroke:#3a3935;stroke-width:1.0000844;stroke-linecap:round;stroke-linejoin:round;marker:none;marker-start:none;marker-mid:none;marker-end:none;stroke-miterlimit:4;stroke-dasharray:none;stroke-dashoffset:0;stroke-opacity:1;visibility:visible;display:inline;overflow:visible;enable-background:accumulate" />
    <path
       d="M 2.9166667,1 C 1.8548333,1 1,1.8601205 1,2.9285214 L 1,44 L 4.0846354,42.644009 C 11.695843,39.263461 17.052083,35.35155 17.052083,33.212334 C 17.052083,31.715346 15.538827,28.958887 13.847656,27.366503 C 12.761865,26.344136 12.311908,25.313803 12.050781,23.087597 C 11.851084,21.385186 11.81116,19.709634 12.230469,19.622284 C 12.945385,19.473354 12.769713,17.138164 12.769531,14.770848 C 12.769225,10.997756 12.94091,10.237717 14.177083,8.4428872 C 14.952557,7.3169557 15.822206,6.3938331 16.09375,6.3938332 C 16.365284,6.3938332 16.423215,6.1440513 16.24349,5.8514366 C 16.05648,5.5469828 16.280156,5.4580869 16.752604,5.6405046 C 17.24812,5.8318254 17.712682,5.5829624 17.920573,5.0378416 C 18.166405,4.3932691 18.390243,4.3123859 18.669271,4.7666433 C 18.960911,5.2414424 19.421494,5.1841576 20.466146,4.495445 C 21.275866,3.9616139 22.465484,3.734058 23.820312,3.7421163 C 27.884798,3.7662913 33.478833,5.9412365 35.200521,8.7442187 C 36.065762,10.152864 36.308592,11.435451 36.308594,14.800981 C 36.308594,17.148886 36.257771,19.43508 36.817708,19.622284 C 37.22407,19.758143 37.197073,21.385185 36.997396,23.087597 C 36.73626,25.313804 36.316249,26.344137 35.230469,27.366503 C 33.540994,28.957289 32.026043,31.718964 32.026042,33.212334 C 32.026042,35.298364 37.686341,39.500734 44.184896,42.222144 L 47,43.397337 L 47,2.9285214 C 47,1.8601205 46.145167,1 45.083333,1 L 2.9166667,1 z"
       id="rect2382"
       style="opacity:1;fill:#eae3d0;fill-opacity:1;fill-rule:nonzero;stroke:none;stroke-width:1.00178742000000010;stroke-linecap:butt;stroke-linejoin:miter;marker:none;marker-start:none;marker-mid:none;marker-end:none;stroke-miterlimit:4;stroke-dasharray:none;stroke-dashoffset:0;stroke-opacity:1;visibility:visible;display:inline;overflow:visible;enable-background:accumulate" />
  </g>
</svg>
